X:1
T: Apples in Winter
C:
R:Jig
Q:180
K:Em
M:6/8
L:1/16
dc|B2E2E2 d2E2E2|B2A2G2 F2E2F2|D2E2D2 F2D2F2|A2B2c2 d2e2d2|B2E2E2 B2A2B2|d2e2f2 g2f2e2|f2d2B2 A2d2F2|F2E2E2 E4dc|
B2E2E2 d2E2E2|B2A2G2 F2E2F2|D2E2D2 F2D2F2|A2B2c2 d2e2d2|B2E2E2 B2A2B2|d2e2f2 g2f2e2|f2d2B2 A2d2F2|F2E2E2 E4B2|
e2f2e2 e2d2B2|efg2e2 f2d2B2|d2e2d2 d2A2F2|D2F2A2 d2e2f2|e2f2e2 e2d2B2|e2d2e2 g4a2|b2g2b2 a2f2a2|g2e2e2 e4B2|
e2f2e2 e2d2B2|efg2e2 f2d2B2|d2e2d2 d2A2F2|D2F2A2 d2e2f2|e2d2B2 d2e2f2|g2b2a2 g2f2e2|f2d2B2A2 d2F2F2|E2E2 E4||
